X:1
T: Miss Fraser
C:
R:Reel
Q: 232
K:G
M:4/4
L:1/8
g|gG GA GA Gg|gG GB AG Ea|gG GA GA BG|A2 b1/2a1/2g e2 g2|
gG GA GA Ge|gG GB AG Ea|gG GA GA BG|A2 b1/2a1/2g e2 g|
|:e|de ga b1/2a1/2g a1/2g1/2e|d1/2e1/2g gB AG Eg|de ga bg ab|d2 b1/2a1/2g e2 ge|
de ga b1/2a1/2g a1/2g1/2e|d1/2e1/2f gB AG Eg|de ga b1/2a1/2g ab|d2 b1/2a1/2g e2 g:|
g|gG GA GA Gg|gG GB AG Ea|gG GA GA BG|A2 b1/2a1/2g e2 g2|
gG GA GA Ge|gG GB AG Ea|gG GA GA BG|A2 b1/2a1/2g e2 g2||
